src/assets/images/logo-black.svg

<svg width="60" height="54" viewBox="0 0 60 54" fill="none" xmlns="http://www.w3.org/2000/svg">
<g clip-path="url(#clip0_450_307)">
<path d="M0.650484 43.5273H0.689547C0.918083 43.5273 1.12179 43.6755 1.19846 43.8979L3.16329 49.5847C3.19761 49.6834 3.33269 49.6834 3.367 49.5847L5.32709 43.8983C5.40375 43.6759 5.60746 43.5273 5.836 43.5273H5.8747C6.24854 43.5273 6.5092 43.91 6.38325 44.2733L4.08437 50.9044C4.00734 51.126 3.804 51.2742 3.57583 51.2742H2.94899C2.72082 51.2742 2.51711 51.126 2.44044 50.9044L0.141935 44.2733C0.0159842 43.91 0.276647 43.5273 0.650484 43.5273Z" fill="#131825"/>
<path d="M7.39818 44.5944C7.26456 44.4564 7.19775 44.2895 7.19775 44.0931C7.19775 43.8967 7.26456 43.7301 7.39818 43.5917C7.5318 43.4537 7.69352 43.3848 7.88373 43.3848C8.07393 43.3848 8.2353 43.4537 8.36928 43.5917C8.5029 43.7297 8.5697 43.8967 8.5697 44.0931C8.5697 44.2895 8.5029 44.4564 8.36928 44.5944C8.23566 44.7324 8.07393 44.8014 7.88373 44.8014C7.69352 44.8014 7.5318 44.7324 7.39818 44.5944ZM7.32443 50.7154V46.1871C7.32443 45.8791 7.56648 45.6292 7.86474 45.6292H7.90271C8.20098 45.6292 8.44302 45.8791 8.44302 46.1871V50.7154C8.44302 51.0234 8.20098 51.2733 7.90271 51.2733H7.86474C7.56648 51.2733 7.32443 51.0234 7.32443 50.7154Z" fill="#131825"/>
<path d="M9.49414 47.352V47.216C9.49414 46.7764 9.64784 46.4025 9.95596 46.0938C10.2637 45.785 10.6339 45.6309 11.0665 45.6309H13.7341C14.0324 45.6309 14.2744 45.8808 14.2744 46.1888V46.2227C14.2744 46.5307 14.0324 46.7806 13.7341 46.7806H11.0665C10.9398 46.7806 10.8318 46.8232 10.742 46.9087C10.6522 46.9939 10.6073 47.0968 10.6073 47.2167V47.3528C10.6073 47.4764 10.6522 47.5816 10.742 47.6687C10.8318 47.7558 10.9398 47.7995 11.0665 47.7995H13.0609C13.4935 47.7995 13.863 47.9548 14.1689 48.2654C14.4749 48.576 14.6278 48.9511 14.6278 49.3902V49.6843C14.6278 50.1238 14.4749 50.4989 14.1689 50.8091C13.863 51.1197 13.4935 51.275 13.0609 51.275H10.2827C9.98444 51.275 9.74239 51.0251 9.74239 50.7171V50.6832C9.74239 50.3752 9.98444 50.1253 10.2827 50.1253H13.0609C13.1876 50.1253 13.2957 50.0816 13.3855 49.9945C13.4753 49.9074 13.5202 49.8019 13.5202 49.6786V49.3951C13.5202 49.2719 13.4753 49.1656 13.3855 49.0766C13.2957 48.9877 13.1876 48.9432 13.0609 48.9432H11.0665C10.6339 48.9432 10.2637 48.7879 9.95596 48.4773C9.6482 48.1666 9.49414 47.7916 9.49414 47.3524V47.352Z" fill="#131825"/>
<path d="M15.6792 49.2352V46.1868C15.6792 45.8788 15.9212 45.6289 16.2195 45.6289H16.2524C16.5506 45.6289 16.7927 45.8788 16.7927 46.1868V49.219C16.7927 49.4731 16.8763 49.6895 17.0431 49.8674C17.2103 50.0453 17.4133 50.1343 17.6524 50.1343H19.4807C19.5402 50.1343 19.5888 50.0841 19.5888 50.0227V46.1868C19.5888 45.8788 19.8308 45.6289 20.1291 45.6289H20.1619C20.4602 45.6289 20.7023 45.8788 20.7023 46.1868V50.129C20.7023 50.4449 20.5924 50.7148 20.3726 50.938C20.1528 51.1615 19.8881 51.2731 19.5786 51.2731H17.6528C17.111 51.2731 16.6466 51.0733 16.26 50.6737C15.8731 50.2741 15.6796 49.7946 15.6796 49.2356L15.6792 49.2352Z" fill="#131825"/>
<path d="M21.7534 49.2352V47.6554C21.7534 47.096 21.9462 46.6184 22.3313 46.2226C22.7165 45.8268 23.1816 45.6289 23.727 45.6289H26.2362C26.5344 45.6289 26.7765 45.8788 26.7765 46.1868V50.7152C26.7765 51.0231 26.5344 51.2731 26.2362 51.2731H26.2033C25.905 51.2731 25.663 51.0231 25.663 50.7152V46.8902C25.663 46.8288 25.6144 46.7786 25.5549 46.7786H23.7266C23.4875 46.7786 23.2842 46.8649 23.1173 47.0372C22.9505 47.2095 22.8669 47.4194 22.8669 47.6664V49.2243C22.8669 49.4712 22.9512 49.6827 23.1203 49.8591C23.2889 50.0351 23.4912 50.1233 23.727 50.1233H24.49C24.7883 50.1233 25.0303 50.3733 25.0303 50.6812V50.7152C25.0303 51.0231 24.7883 51.2731 24.49 51.2731H23.727C23.1852 51.2731 22.7209 51.0733 22.3343 50.6737C21.9473 50.2741 21.7538 49.7946 21.7538 49.2356L21.7534 49.2352Z" fill="#131825"/>
<path d="M27.8804 50.7163V44.0852C27.8804 43.7773 28.1224 43.5273 28.4207 43.5273H28.4535C28.7518 43.5273 28.9938 43.7773 28.9938 44.0852V50.7163C28.9938 51.0242 28.7518 51.2742 28.4535 51.2742H28.4207C28.1224 51.2742 27.8804 51.0242 27.8804 50.7163Z" fill="#131825"/>
<path d="M32.9312 49.1059V44.0852C32.9312 43.7773 33.1732 43.5273 33.4715 43.5273H33.4988C33.7971 43.5273 34.0392 43.7773 34.0392 44.0852V49.1059C34.0392 49.3894 34.1359 49.6306 34.3294 49.8304C34.5229 50.0302 34.7551 50.1301 35.0259 50.1301H38.2054C38.5037 50.1301 38.7457 50.38 38.7457 50.688V50.7163C38.7457 51.0242 38.5037 51.2742 38.2054 51.2742H35.0259C34.4491 51.2742 33.9559 51.0627 33.5459 50.6394C33.1363 50.2164 32.9312 49.7049 32.9312 49.1059Z" fill="#131825"/>
<path d="M39.3745 49.2372V47.6574C39.3745 47.098 39.5673 46.6204 39.9524 46.2246C40.3376 45.8288 40.8027 45.6309 41.3481 45.6309H43.8573C44.1555 45.6309 44.3976 45.8808 44.3976 46.1888V50.7171C44.3976 51.0251 44.1555 51.275 43.8573 51.275H43.8244C43.5261 51.275 43.2841 51.0251 43.2841 50.7171V46.8922C43.2841 46.8307 43.2355 46.7806 43.176 46.7806H41.3477C41.1086 46.7806 40.9053 46.8669 40.7384 47.0392C40.5712 47.2118 40.488 47.4214 40.488 47.6683V49.2263C40.488 49.4732 40.5723 49.6846 40.7413 49.8611C40.91 50.0371 41.1123 50.1253 41.3481 50.1253H42.1111C42.4094 50.1253 42.6514 50.3752 42.6514 50.6832V50.7171C42.6514 51.0251 42.4094 51.275 42.1111 51.275H41.3481C40.8063 51.275 40.342 51.0752 39.9553 50.6757C39.5684 50.2761 39.3749 49.7966 39.3749 49.2376L39.3745 49.2372Z" fill="#131825"/>
<path d="M45.8628 45.6309H45.8865C46.1118 45.6309 46.3133 45.7752 46.3925 45.9931L47.5805 49.2666C47.6155 49.3627 47.7469 49.3635 47.7827 49.2674L48.9988 45.9893C49.0787 45.7733 49.2795 45.6309 49.5033 45.6309H49.5734C49.9527 45.6309 50.2141 46.024 50.0776 46.3893L47.5925 53.0422C47.5122 53.2574 47.3118 53.3992 47.0883 53.3992H47.0234C46.6451 53.3992 46.3841 53.0083 46.5181 52.6434L47.0894 51.0896L45.3575 46.387C45.2232 46.0218 45.4842 45.6309 45.8624 45.6309H45.8628Z" fill="#131825"/>
<path d="M51.0428 49.6839V46.7964C51.0428 46.4734 51.1571 46.1982 51.3857 45.9713C51.6142 45.7443 51.8887 45.6309 52.2089 45.6309H54.4881C54.9243 45.6309 55.296 45.7907 55.6041 46.1103C55.9118 46.43 56.0659 46.8168 56.0659 47.2706V47.4286C56.0659 47.8753 55.9118 48.2575 55.6041 48.5753C55.2963 48.893 54.9243 49.0521 54.4881 49.0521H53.3293C53.031 49.0521 52.789 48.8022 52.789 48.4942V48.4659C52.789 48.158 53.031 47.9081 53.3293 47.9081H54.4986C54.6253 47.9081 54.7334 47.8609 54.8232 47.7663C54.913 47.6721 54.9579 47.5575 54.9579 47.4233V47.2706C54.9579 47.1364 54.913 47.0211 54.8232 46.9246C54.7334 46.8285 54.6253 46.7802 54.4986 46.7802H52.6963C52.398 46.7802 52.156 47.0301 52.156 47.3381V49.6786C52.156 49.8023 52.1965 49.9074 52.2772 49.9945C52.3582 50.0816 52.4564 50.1253 52.5725 50.1253H55.1397C55.438 50.1253 55.68 50.3752 55.68 50.6832V50.7171C55.68 51.0251 55.438 51.275 55.1397 51.275H52.5725C52.1505 51.275 51.7898 51.1197 51.4908 50.8091C51.1918 50.4985 51.0425 50.1234 51.0425 49.6843L51.0428 49.6839Z" fill="#131825"/>
<path d="M57.6575 51.2746C57.3592 51.2746 57.1172 51.0247 57.1172 50.7167V47.2107C57.1172 46.7749 57.2709 46.4025 57.579 46.0938C57.8868 45.785 58.2569 45.6309 58.6896 45.6309H59.3682C59.6665 45.6309 59.9085 45.8808 59.9085 46.1888V46.217C59.9085 46.525 59.6665 46.7749 59.3682 46.7749H58.6896C58.5629 46.7749 58.4548 46.8194 58.365 46.9084C58.2752 46.9973 58.2303 47.1055 58.2303 47.2325V50.7171C58.2303 51.0251 57.9883 51.275 57.69 51.275H57.6571L57.6575 51.2746Z" fill="#131825"/>
<path d="M22.5633 2.94777L21.8211 0.613281H12.2642L16.4873 12.9069L22.5633 2.94777Z" fill="#FF4500"/>
<path d="M49.6522 0.613281H40.1474L36.2163 12.9069L46.9484 8.48412L49.6522 0.613281Z" fill="#A4C217"/>
<path d="M46.9484 8.48412L40.1475 0.613281H49.6522L46.9484 8.48412Z" fill="#D5CA29"/>
<path d="M25.7458 12.9064L22.563 2.94727L18.3472 9.85725L25.7458 12.9064Z" fill="#D6493E"/>
<path d="M21.6424 27.9129L30.9583 29.3498L25.7462 12.9062L19.4121 21.4209L21.6424 27.9129Z" fill="#A63B94"/>
<path d="M30.958 29.3498L40.2725 27.917L42.632 21.0485L36.2162 12.9062L30.958 29.3498Z" fill="#2DB686"/>
<path d="M30.9582 29.3496L36.5771 38.6751H25.3394L30.9582 29.3496Z" fill="#0197D8"/>
<path d="M30.9581 29.351L25.3392 38.6765L21.6421 27.9141L30.9581 29.351Z" fill="#336C9B"/>
<path d="M36.5769 38.6763L40.2725 27.918L30.958 29.3508L36.5769 38.6763Z" fill="#26BF79"/>
<path d="M19.4122 21.4207L25.7462 12.906L14.9604 8.46094L19.4122 21.4207Z" fill="#CC4E84"/>
<path d="M42.6321 21.0494L36.2163 12.9072L46.9484 8.48438L42.6321 21.0494Z" fill="#1BC07D"/>
</g>
<defs>
<clipPath id="clip0_450_307">
<rect width="60" height="53" fill="white" transform="translate(0 0.5)"/>
</clipPath>
</defs>
</svg>

<svg xmlns="http://www.w3.org/2000/svg" width="60" height="54" fill="none"><g clip-path="url(#a)"><path fill="#131825" d="M.65 43.527h.04c.228 0 .432.148.508.37l1.965 5.688c.035.098.17.098.204 0l1.96-5.687a.542.542 0 0 1 .509-.37h.039c.374 0 .634.382.508.745l-2.299 6.631a.542.542 0 0 1-.508.37h-.627a.541.541 0 0 1-.509-.37l-2.298-6.63c-.126-.364.135-.747.508-.747ZM7.398 44.594a.694.694 0 0 1-.2-.5c0-.197.067-.364.2-.502a.65.65 0 0 1 .486-.207c.19 0 .351.069.485.207.134.138.2.305.2.501a.694.694 0 0 1-.2.501.65.65 0 0 1-.485.207.65.65 0 0 1-.486-.207Zm-.074 6.121v-4.528a.55.55 0 0 1 .54-.558h.039c.298 0 .54.25.54.558v4.528a.55.55 0 0 1-.54.558h-.038a.55.55 0 0 1-.54-.558ZM9.494 47.352v-.136c0-.44.154-.813.462-1.122a1.511 1.511 0 0 1 1.11-.463h2.668c.298 0 .54.25.54.558v.034a.55.55 0 0 1-.54.558h-2.668a.453.453 0 0 0-.324.128.41.41 0 0 0-.135.308v.136c0 .123.045.229.135.316a.45.45 0 0 0 .324.13h1.995c.432 0 .802.156 1.108.466.306.311.459.686.459 1.125v.294c0 .44-.153.815-.46 1.125-.305.31-.675.466-1.107.466h-2.778a.55.55 0 0 1-.54-.558v-.034a.55.55 0 0 1 .54-.558h2.778a.45.45 0 0 0 .325-.13.424.424 0 0 0 .134-.316v-.284a.433.433 0 0 0-.134-.318.445.445 0 0 0-.325-.134h-1.995c-.432 0-.802-.155-1.11-.466a1.54 1.54 0 0 1-.462-1.125ZM15.68 49.235v-3.048a.55.55 0 0 1 .54-.558h.032c.299 0 .54.25.54.558v3.032c0 .254.084.47.251.648.167.178.37.267.61.267h1.828a.11.11 0 0 0 .108-.111v-3.836a.55.55 0 0 1 .54-.558h.033c.298 0 .54.25.54.558v3.942c0 .316-.11.586-.33.809-.22.223-.484.335-.793.335h-1.926a1.87 1.87 0 0 1-1.393-.6c-.387-.399-.58-.878-.58-1.437ZM21.753 49.235v-1.58c0-.559.193-1.037.578-1.432.386-.396.85-.594 1.396-.594h2.51c.297 0 .54.25.54.558v4.528a.55.55 0 0 1-.54.558h-.034a.55.55 0 0 1-.54-.558V46.89a.11.11 0 0 0-.108-.111h-1.828a.817.817 0 0 0-.61.258.871.871 0 0 0-.25.63v1.557c0 .247.084.459.253.635a.81.81 0 0 0 .607.264h.763c.298 0 .54.25.54.558v.034a.55.55 0 0 1-.54.558h-.763c-.542 0-1.006-.2-1.393-.6-.387-.399-.58-.878-.58-1.437ZM27.88 50.716v-6.63a.55.55 0 0 1 .54-.559h.033c.299 0 .54.25.54.558v6.631a.55.55 0 0 1-.54.558h-.032a.55.55 0 0 1-.54-.558ZM32.931 49.106v-5.02a.55.55 0 0 1 .54-.559h.028c.298 0 .54.25.54.558v5.02c0 .284.097.526.29.725.194.2.426.3.697.3h3.18c.298 0 .54.25.54.558v.028a.55.55 0 0 1-.54.558h-3.18c-.577 0-1.07-.211-1.48-.635a2.125 2.125 0 0 1-.615-1.533ZM39.374 49.237v-1.58c0-.559.193-1.037.578-1.432.386-.396.85-.594 1.396-.594h2.51c.298 0 .54.25.54.558v4.528a.55.55 0 0 1-.54.558h-.034a.55.55 0 0 1-.54-.558v-3.825a.11.11 0 0 0-.108-.111h-1.828a.817.817 0 0 0-.61.258.87.87 0 0 0-.25.63v1.557c0 .247.084.459.253.635a.811.811 0 0 0 .607.264h.763c.298 0 .54.25.54.558v.034a.55.55 0 0 1-.54.558h-.763a1.87 1.87 0 0 1-1.393-.6c-.387-.399-.58-.878-.58-1.437ZM45.863 45.63h.023c.226 0 .427.145.506.363l1.188 3.274a.107.107 0 0 0 .203 0l1.216-3.278a.54.54 0 0 1 .504-.358h.07c.38 0 .641.393.505.758l-2.486 6.653a.54.54 0 0 1-.504.357h-.065c-.378 0-.639-.39-.505-.756l.571-1.553-1.731-4.703c-.135-.365.126-.756.504-.756ZM51.043 49.684v-2.888c0-.323.114-.598.343-.825.228-.227.503-.34.823-.34h2.28c.435 0 .807.16 1.115.48.308.319.462.706.462 1.16v.158c0 .446-.154.828-.462 1.146-.308.318-.68.477-1.116.477H53.33a.55.55 0 0 1-.54-.558v-.028a.55.55 0 0 1 .54-.558h1.17a.431.431 0 0 0 .324-.142.48.48 0 0 0 .135-.343v-.152a.49.49 0 0 0-.135-.346.428.428 0 0 0-.324-.145h-1.803a.55.55 0 0 0-.54.558v2.34c0 .124.04.23.121.317.081.087.18.13.295.13h2.568c.298 0 .54.25.54.558v.034a.55.55 0 0 1-.54.558h-2.568c-.422 0-.782-.155-1.081-.466a1.563 1.563 0 0 1-.449-1.125ZM57.657 51.275a.55.55 0 0 1-.54-.558V47.21c0-.436.154-.808.462-1.117a1.511 1.511 0 0 1 1.11-.463h.68c.297 0 .54.25.54.558v.028a.55.55 0 0 1-.54.558h-.68a.444.444 0 0 0-.324.133.44.44 0 0 0-.135.325v3.484a.55.55 0 0 1-.54.558h-.033Z"/><path fill="#FF4500" d="M22.563 2.948 21.821.613h-9.557l4.223 12.294 6.076-9.96Z"/><path fill="#A4C217" d="M49.652.613h-9.505l-3.93 12.294 10.731-4.423 2.704-7.87Z"/><path fill="#D5CA29" d="m46.948 8.484-6.8-7.87h9.504l-2.704 7.87Z"/><path fill="#D6493E" d="m25.746 12.906-3.183-9.959-4.216 6.91 7.399 3.05Z"/><path fill="#A63B94" d="m21.642 27.913 9.316 1.437-5.212-16.444-6.334 8.515 2.23 6.492Z"/><path fill="#2DB686" d="m30.958 29.35 9.315-1.433 2.359-6.869-6.416-8.142-5.258 16.444Z"/><path fill="#0197D8" d="m30.958 29.35 5.62 9.325H25.338l5.62-9.325Z"/><path fill="#336C9B" d="m30.958 29.351-5.619 9.325-3.697-10.762 9.316 1.437Z"/><path fill="#26BF79" d="m36.577 38.676 3.696-10.758-9.315 1.433 5.619 9.325Z"/><path fill="#CC4E84" d="m19.412 21.42 6.334-8.514L14.96 8.461l4.452 12.96Z"/><path fill="#1BC07D" d="m42.632 21.05-6.416-8.143 10.732-4.423-4.316 12.565Z"/></g><defs><clipPath id="a"><path fill="#fff" d="M0 .5h60v53H0z"/></clipPath></defs></svg>
